X: 20323
T: John Brosnan's
R: polka
M: 2/4
K: Dmajor
|:D2 DB|AF FB|AF DE|FE EF|
D2 DB|AF FB|AFE F|1 DA, B,C:|2 D2 D2||
|:d2 cd|BA FA|d2 cd|B2 Bc|
d2 cd|BA FB|AF EF|D2 D2:|
|:d2 e2|f2 fe|d2 Bc|d2 dA|
Bc/B/ AF|Bc/B/ AF|AF EF|D2 D2:|

